Newaita-dark/emblems/48/emblem-symbolic-link.svg

<svg height="48" viewBox="0 0 48 48" width="48" xmlns="http://www.w3.org/2000/svg"><path d="m83.408702 43.850281c-20.123079 11.582227-27.080748 37.579745-15.49852 57.702823l42.370953 73.326331c11.582228 20.123078 37.579745 27.080747 57.702823 15.456857l82.492123-47.620452c20.081415-11.62389 27.080747-37.621407 15.456857-57.702823l-5.332824-9.249117 18.456571-10.665648 5.332824 9.249117c11.62389 20.081415 37.621407 27.039084 57.744486 15.456857l82.492122-47.620452c20.081416-11.62389 27.039084-37.621408 15.456857-57.744486l-42.329291-73.326331c-11.62389-20.081416-37.621407-27.080747-57.744486-15.456857l-82.492122 47.620452c-20.081416 11.62389-27.039085 37.621407-15.456857 57.744486l5.332824 9.207454-18.456571 10.665648-5.332824-9.207454c-11.62389-20.123079-37.621407-27.080747-57.702823-15.49852zm10.498997 18.164932 82.492122-47.620452c10.332347-5.957765 23.039467-2.583087 28.997231 7.790922l10.582323 18.331583c2.916388 4.999523 9.332442 6.707693 14.373627 3.832967l36.663166-21.164645c4.999522-2.916388 6.707693-9.332442 3.832967-14.331965l-10.582323-18.331583c-5.999427-10.374009-2.583086-23.081129 7.74926-29.038893l82.492123-47.620453c10.374009-5.999427 23.081129-2.583086 29.038893 7.74926l42.329291 73.326331c5.999428 10.37401 2.583087 23.081129-7.749259 29.038894l-82.492123 47.620452c-10.374009 5.999427-23.081129 2.583087-29.038893-7.74926l-10.582323-18.331582c-2.916388-5.041186-9.332442-6.749356-14.331965-3.87463l-36.663165 21.164645c-5.041186 2.916388-6.749356 9.332442-3.87463 14.373627l10.582322 18.331583c5.999427 10.332347 2.583087 23.039467-7.74926 28.997231l-82.492122 47.620453c-10.374009 5.999427-23.039467 2.583086-29.038894-7.74926l-42.329291-73.326331c-5.999427-10.37401-2.583086-23.039467 7.790923-29.038894zm28.997231 7.874248c-9.957383 5.749451-13.498711 18.873198-7.74926 28.83058l21.164645 36.663166c5.749451 9.957382 18.873198 13.457048 28.830581 7.707597l45.828956-26.455807c9.957383-5.749451 13.457049-18.831535 7.707598-28.788917l-.333302-.583278c-2.416436-4.166269-7.29097-6.166078-11.915529-4.874534-4.582895 1.291543-9.499092-.499953-12.082179-4.95786-2.583087-4.457908-1.666508-9.624081 1.749833-12.915434 3.41634-3.374677 4.124606-8.624176 1.749833-12.790445l-.333302-.541615c-5.749451-9.957382-18.831535-13.498711-28.788917-7.74926zm174.108373-100.532066c-9.957382 5.749451-13.457048 18.873197-7.707597 28.83058l.333302.541615c2.416435 4.166269 7.332633 6.166078 11.915528 4.874534 4.582896-1.291543 9.540756.499953 12.08218 4.95786 2.583087 4.457908 1.666507 9.624081-1.749833 12.915434-3.41634 3.374677-4.124606 8.624176-1.749833 12.790445l.333302.583277c5.749451 9.957383 18.873197 13.457049 28.83058 7.707598l45.828957-26.455807c9.957382-5.749451 13.457048-18.873198 7.707597-28.83058l-21.164646-36.663166c-5.749451-9.957382-18.873197-13.457048-28.83058-7.707597zm0 0" fill="#424242" stroke="#424242" stroke-linecap="round" stroke-linejoin="round" stroke-width="70" transform="matrix(.093759 0 0 .093759 0 20.158175)"/><path d="m8.3125 25.121094c-1.429688.824218-1.914062 2.636718-1.089844 4.066406l3.96875 6.875c.824219 1.425781 2.636719 1.914062 4.066406 1.089844l7.734376-4.464844c1.425781-.828125 1.914062-2.640625 1.089843-4.066406l-.992187-1.71875 3.4375-1.984375.992187 1.71875c.824219 1.425781 2.636719 1.914062 4.066407 1.085937l7.734374-4.464844c1.425782-.824218 1.914063-2.636718 1.085938-4.066406l-3.96875-6.875c-.824219-1.425781-2.636719-1.914062-4.066406-1.089844l-7.734375 4.46875c-1.425781.824219-1.914063 2.636719-1.085938 4.066407l.992188 1.71875-3.4375 1.984375-.992188-1.71875c-.828125-1.429688-2.640625-1.914063-4.066406-1.089844zm3.703125 2.445312 4.296875-2.480468c.472656-.277344 1.078125-.113282 1.355469.363281l.03125.050781c-.636719.621094-.792969 1.605469-.328125 2.410156.460937.804688 1.394531 1.160156 2.25.921875l.03125.054688c.273437.476562.113281 1.078125-.363282 1.355469l-4.296874 2.480468c-.476563.273438-1.082032.113282-1.355469-.363281l-1.984375-3.4375c-.277344-.476563-.113282-1.082031.363281-1.355469zm16.324219-9.425781 4.296875-2.484375c.476562-.273438 1.082031-.109375 1.355469.363281l1.984374 3.4375c.277344.476563.113282 1.082031-.359374 1.355469l-4.296876 2.480469c-.476562.277343-1.082031.113281-1.355468-.363281l-.03125-.050782c.632812-.621094.789062-1.605468.328125-2.410156-.464844-.804688-1.398438-1.160156-2.253907-.921875l-.027343-.050781c-.277344-.476563-.113281-1.082032.359375-1.355469zm0 0" fill="#fafafa"/></svg>

<?xml version="1.0" encoding="UTF-8"?>
<svg xmlns="http://www.w3.org/2000/svg" xmlns:xlink="http://www.w3.org/1999/xlink" width="48px" height="48px" viewBox="0 0 48 48" version="1.1">
<g id="surface1">
<path style="fill-rule:nonzero;fill:rgb(25.882354%,25.882354%,25.882354%);fill-opacity:1;stroke-width:70;stroke-linecap:round;stroke-linejoin:round;stroke:rgb(25.882354%,25.882354%,25.882354%);stroke-opacity:1;stroke-miterlimit:4;" d="M 83.408702 43.850281 C 63.285623 55.432508 56.327954 81.430026 67.910182 101.553104 L 110.281135 174.879435 C 121.863363 195.002513 147.86088 201.960182 167.983958 190.336292 L 250.476081 142.71584 C 270.557496 131.09195 277.556828 105.094433 265.932938 85.013017 L 260.600114 75.7639 L 279.056685 65.098252 L 284.389509 74.347369 C 296.013399 94.428784 322.010916 101.386453 342.133995 89.804226 L 424.626117 42.183774 C 444.707533 30.559884 451.665201 4.562366 440.082974 -15.560712 L 397.753683 -88.887043 C 386.129793 -108.968459 360.132276 -115.96779 340.009197 -104.3439 L 257.517075 -56.723448 C 237.435659 -45.099558 230.47799 -19.102041 242.060218 1.021038 L 247.393042 10.228492 L 228.936471 20.89414 L 223.603647 11.686686 C 211.979757 -8.436393 185.98224 -15.394061 165.900824 -3.811834 Z M 93.907699 62.015213 L 176.399821 14.394761 C 186.732168 8.436996 199.439288 11.811674 205.397052 22.185683 L 215.979375 40.517266 C 218.895763 45.516789 225.311817 47.224959 230.353002 44.350233 L 267.016168 23.185588 C 272.01569 20.2692 273.723861 13.853146 270.849135 8.853623 L 260.266812 -9.47796 C 254.267385 -19.851969 257.683726 -32.559089 268.016072 -38.516853 L 350.508195 -86.137306 C 360.882204 -92.136733 373.589324 -88.720392 379.547088 -78.388046 L 421.876379 -5.061715 C 427.875807 5.312295 424.459466 18.019414 414.12712 23.977179 L 331.634997 71.597631 C 321.260988 77.597058 308.553868 74.180718 302.596104 63.848371 L 292.013781 45.516789 C 289.097393 40.475603 282.681339 38.767433 277.681816 41.642159 L 241.018651 62.806804 C 235.977465 65.723192 234.269295 72.139246 237.144021 77.180431 L 247.726343 95.512014 C 253.72577 105.844361 250.30943 118.551481 239.977083 124.509245 L 157.484961 172.129698 C 147.110952 178.129125 134.445494 174.712784 128.446067 164.380438 L 86.116776 91.054107 C 80.117349 80.680097 83.53369 68.01464 93.907699 62.015213 Z M 122.90493 69.889461 C 112.947547 75.638912 109.406219 88.762659 115.15567 98.720041 L 136.320315 135.383207 C 142.069766 145.340589 155.193513 148.840255 165.150896 143.090804 L 210.979852 116.634997 C 220.937235 110.885546 224.436901 97.803462 218.68745 87.84608 L 218.354148 87.262802 C 215.937712 83.096533 211.063178 81.096724 206.438619 82.388268 C 201.855724 83.679811 196.939527 81.888315 194.35644 77.430408 C 191.773353 72.9725 192.689932 67.806327 196.106273 64.514974 C 199.522613 61.140297 200.230879 55.890798 197.856106 51.724529 L 197.522804 51.182914 C 191.773353 41.225532 178.691269 37.684203 168.733887 43.433654 Z M 297.013303 -30.642605 C 287.055921 -24.893154 283.556255 -11.769408 289.305706 -1.812025 L 289.639008 -1.27041 C 292.055443 2.895859 296.971641 4.895668 301.554536 3.604124 C 306.137432 2.312581 311.095292 4.104077 313.636716 8.561984 C 316.219803 13.019892 315.303223 18.186065 311.886883 21.477418 C 308.470543 24.852095 307.762277 30.101594 310.13705 34.267863 L 310.470352 34.85114 C 316.219803 44.808523 329.343549 48.308189 339.300932 42.558738 L 385.129889 16.102931 C 395.087271 10.35348 398.586937 -2.770267 392.837486 -12.727649 L 371.67284 -49.390815 C 365.923389 -59.348197 352.799643 -62.847863 342.84226 -57.098412 Z M 297.013303 -30.642605 " transform="matrix(0.093759,0,0,0.093759,0,20.158175)"/>
<path style=" stroke:none;fill-rule:nonzero;fill:rgb(98.039216%,98.039216%,98.039216%);fill-opacity:1;" d="M 8.3125 25.121094 C 6.882812 25.945312 6.398438 27.757812 7.222656 29.1875 L 11.191406 36.0625 C 12.015625 37.488281 13.828125 37.976562 15.257812 37.152344 L 22.992188 32.6875 C 24.417969 31.859375 24.90625 30.046875 24.082031 28.621094 L 23.089844 26.902344 L 26.527344 24.917969 L 27.519531 26.636719 C 28.34375 28.0625 30.15625 28.550781 31.585938 27.722656 L 39.320312 23.257812 C 40.746094 22.433594 41.234375 20.621094 40.40625 19.191406 L 36.4375 12.316406 C 35.613281 10.890625 33.800781 10.402344 32.371094 11.226562 L 24.636719 15.695312 C 23.210938 16.519531 22.722656 18.332031 23.550781 19.761719 L 24.542969 21.480469 L 21.105469 23.464844 L 20.113281 21.746094 C 19.285156 20.316406 17.472656 19.832031 16.046875 20.65625 Z M 12.015625 27.566406 L 16.3125 25.085938 C 16.785156 24.808594 17.390625 24.972656 17.667969 25.449219 L 17.699219 25.5 C 17.0625 26.121094 16.90625 27.105469 17.371094 27.910156 C 17.832031 28.714844 18.765625 29.070312 19.621094 28.832031 L 19.652344 28.886719 C 19.925781 29.363281 19.765625 29.964844 19.289062 30.242188 L 14.992188 32.722656 C 14.515625 32.996094 13.910156 32.835938 13.636719 32.359375 L 11.652344 28.921875 C 11.375 28.445312 11.539062 27.839844 12.015625 27.566406 Z M 28.339844 18.140625 L 32.636719 15.65625 C 33.113281 15.382812 33.71875 15.546875 33.992188 16.019531 L 35.976562 19.457031 C 36.253906 19.933594 36.089844 20.539062 35.617188 20.8125 L 31.320312 23.292969 C 30.84375 23.570312 30.238281 23.40625 29.964844 22.929688 L 29.933594 22.878906 C 30.566406 22.257812 30.722656 21.273438 30.261719 20.46875 C 29.796875 19.664062 28.863281 19.308594 28.007812 19.546875 L 27.980469 19.496094 C 27.703125 19.019531 27.867188 18.414062 28.339844 18.140625 Z M 28.339844 18.140625 "/>
</g>
</svg>
